Adwaita++-Dark/actions/16/view-barcode-add.svg

<svg xmlns="http://www.w3.org/2000/svg" width="16" height="16" viewBox="0 0 16 16">
 <defs>
  <style id="current-color-scheme" type="text/css">
   .ColorScheme-Text { color:#E6DDFF; } .ColorScheme-Highlight { color:#4285f4; }
  </style>
 </defs>
 <path style="fill:currentColor" class="ColorScheme-Text" d="M 1 1.0039062 L 1 14.003906 L 3 14.003906 L 3 1.0039062 L 1 1.0039062 z M 4 1.0039062 L 4 7.0039062 L 5 7.0039062 L 5 1.0039062 L 4 1.0039062 z M 6 1.0039062 L 6 14.003906 L 7 14.003906 L 7 1.0039062 L 6 1.0039062 z M 8 1.0039062 L 8 9.0039062 L 9 9.0039062 L 9 1.0039062 L 8 1.0039062 z M 10 1.0039062 L 10 7.0039062 L 11 7.0039062 L 11 1.0039062 L 10 1.0039062 z M 12 1.0039062 L 12 7.0039062 L 15 7.0039062 L 15 1.0039062 L 12 1.0039062 z M 11 8.0039062 A 1.000075 1.000075 0 0 0 10 9.0039062 L 10 10.003906 L 9 10.003906 A 1.000075 1.000075 0 0 0 8 11.003906 L 8 12.003906 A 1.000075 1.000075 0 0 0 9 13.003906 L 10 13.003906 L 10 14.003906 A 1.000075 1.000075 0 0 0 11 15.003906 L 12 15.003906 A 1.000075 1.000075 0 0 0 13 14.003906 L 13 13.003906 L 14 13.003906 A 1.000075 1.000075 0 0 0 15 12.003906 L 15 11.003906 A 1.000075 1.000075 0 0 0 14 10.003906 L 13 10.003906 L 13 9.0039062 A 1.000075 1.000075 0 0 0 12 8.0039062 L 11 8.0039062 z"/>
</svg>

<svg height="16" viewBox="0 0 16 16" width="16" xmlns="http://www.w3.org/2000/svg">
  <path d="m1 1.0039062v12.9999998h2v-12.9999998zm3 0v6h1v-6zm2 0v12.9999998h1v-12.9999998zm2 0v8h1v-8zm2 0v6h1v-6zm2 0v6h3v-6zm-1 7a1.000075 1.000075 0 0 0 -1 1v.9999998h-1a1.000075 1.000075 0 0 0 -1 1v1a1.000075 1.000075 0 0 0 1 1h1v1a1.000075 1.000075 0 0 0 1 1h1a1.000075 1.000075 0 0 0 1-1v-1h1a1.000075 1.000075 0 0 0 1-1v-1a1.000075 1.000075 0 0 0 -1-1h-1v-.9999998a1.000075 1.000075 0 0 0 -1-1z" fill="#e6ddff"/>
</svg>
